SVG/compress.svg

<?xml version="1.0" encoding="utf-8"?>
<!-- Generated by IcoMoon.io -->
<!DOCTYPE svg PUBLIC "-//W3C//DTD SVG 1.1//EN" "http://www.w3.org/Graphics/SVG/1.1/DTD/svg11.dtd">
<svg version="1.1" xmlns="http://www.w3.org/2000/svg" xmlns:xlink="http://www.w3.org/1999/xlink" width="12" height="14" viewBox="0 0 12 14">
<path fill="#444444" d="M6 7.5v3.5q0 0.203-0.148 0.352t-0.352 0.148-0.352-0.148l-1.125-1.125-2.594 2.594q-0.078 0.078-0.18 0.078t-0.18-0.078l-0.891-0.891q-0.078-0.078-0.078-0.18t0.078-0.18l2.594-2.594-1.125-1.125q-0.148-0.148-0.148-0.352t0.148-0.352 0.352-0.148h3.5q0.203 0 0.352 0.148t0.148 0.352zM11.898 2.25q0 0.102-0.078 0.18l-2.594 2.594 1.125 1.125q0.148 0.148 0.148 0.352t-0.148 0.352-0.352 0.148h-3.5q-0.203 0-0.352-0.148t-0.148-0.352v-3.5q0-0.203 0.148-0.352t0.352-0.148 0.352 0.148l1.125 1.125 2.594-2.594q0.078-0.078 0.18-0.078t0.18 0.078l0.891 0.891q0.078 0.078 0.078 0.18z"></path>
</svg>

<svg xmlns="http://www.w3.org/2000/svg" viewBox="0 0 12 14"><path d="M6 7.5V11q0 .203-.148.352T5.5 11.5t-.352-.148l-1.125-1.125L1.43 12.82q-.08.08-.18.08t-.18-.08l-.892-.89Q.1 11.852.1 11.75t.078-.18l2.594-2.594L1.647 7.85Q1.5 7.704 1.5 7.5t.147-.353T2 7h3.5q.202 0 .35.147T6 7.5zm5.898-5.25q0 .102-.078.18L9.226 5.024 10.35 6.15q.15.147.15.35t-.15.353T10 7H6.5q-.204 0-.353-.147T6 6.5V3q0-.202.147-.35T6.5 2.5t.35.15l1.126 1.124L10.57 1.18q.078-.078.18-.078t.18.078l.89.89q.08.08.08.18z" /></svg>
